X:1
T:Jo Reynard my Son
M:3/4
L:1/4
K:G
 d| d e f| g/2- f3/2 e| e/4- f/4- f3/4 d e d2| d d e| f g/2- d3/2|\
 d e f| g g/4- f/4- f/4- f z/2 z| g d g| e/2 d3/2 =f/2f/2| e A e| d z z/2 B/2|\
 B ^A B| d c3/2 B/2| c B A| G z||
